X: 1
T: Gillian's Apples
M: 6/8
L: 1/8
R: jig
K: Dmaj
|: F2F ABc | dfd ecA | F2F ABc | dAG FGA |
F2F ABc | dfd ecA | fef gec | edc d2d :|
|: fef gfg | aba gfe | fef gfg | agf g2^g |
agf gfe | fed ecA | fef gec | edc d3 :|
